frontend/src/images/share-facebook.svg

<svg width="50px" height="51px" viewBox="0 0 50 51" version="1.1" xmlns="http://www.w3.org/2000/svg" xmlns:xlink="http://www.w3.org/1999/xlink">
  <!-- Generator: Sketch 47.1 (45422) - http://www.bohemiancoding.com/sketch -->
  <title>logo_fb</title>
  <desc>Created with Sketch.</desc>
  <defs>
    <polygon id="path-1" points="24.9899906 50 49.9799625 50 49.9799625 0.0196629213 24.9899906 0.0196629213 1.87265918e-05 0.0196629213 1.87265918e-05 50 24.9899906 50"></polygon>
  </defs>
  <g id="Component_20170927" stroke="none" stroke-width="1" fill="none" fill-rule="evenodd">
    <g id="Modal" transform="translate(-330.000000, -3180.000000)">
      <g id="Group-5-Copy-2" transform="translate(145.000000, 3092.000000)">
        <g id="part5" transform="translate(90.000000, 50.000000)">
          <g id="logo_fb" transform="translate(95.000000, 38.000000)">
            <g id="Group-3" transform="translate(0.000000, 0.167603)">
              <mask id="mask-2" fill="white">
                <use xlink:href="#path-1"></use>
              </mask>
              <g id="Clip-2"></g>
              <path d="M47.2215356,49.9803371 C48.7447566,49.9803371 49.9799625,48.7451311 49.9799625,47.2219101 L49.9799625,2.75861423 C49.9799625,1.23483146 48.7447566,0 47.2215356,0 L2.75842697,0 C1.23464419,0 0,1.23483146 0,2.75861423 L0,47.2219101 C0,48.7451311 1.23464419,49.9803371 2.75842697,49.9803371 L47.2215356,49.9803371 Z" id="Fill-1" fill="#3C5A99" mask="url(#mask-2)"></path>
            </g>
            <path d="M34.4852809,50.167603 L34.4852809,30.8127341 L40.9820974,30.8127341 L41.9547566,23.2696629 L34.4852809,23.2696629 L34.4852809,18.4537453 C34.4852809,16.2698502 35.0916479,14.7816479 38.2234831,14.7816479 L42.2178652,14.7797753 L42.2178652,8.03333333 C41.5268539,7.94157303 39.1558801,7.73614232 36.3974532,7.73614232 C30.6384644,7.73614232 26.6959551,11.2513109 26.6959551,17.7069288 L26.6959551,23.2696629 L20.1826592,23.2696629 L20.1826592,30.8127341 L26.6959551,30.8127341 L26.6959551,50.167603 L34.4852809,50.167603 Z" id="Fill-4" fill="#FEFEFE"></path>
          </g>
        </g>
      </g>
    </g>
  </g>
</svg>

<svg width="50" height="51" viewBox="0 0 50 51" xmlns="http://www.w3.org/2000/svg" xmlns:xlink="http://www.w3.org/1999/xlink"><title>logo_fb</title><defs><path id="a" d="M24.99 50h24.99V.02H0V50h24.99z"/></defs><g fill="none" fill-rule="evenodd"><g transform="translate(0 .168)"><mask id="b" fill="#fff"><use xlink:href="#a"/></mask><path d="M47.222 49.98a2.759 2.759 0 0 0 2.758-2.758V2.759A2.759 2.759 0 0 0 47.222 0H2.758A2.758 2.758 0 0 0 0 2.759v44.463a2.758 2.758 0 0 0 2.758 2.758h44.464z" fill="#3C5A99" mask="url(#b)"/></g><path d="M34.485 50.168V30.813h6.497l.973-7.543h-7.47v-4.816c0-2.184.607-3.672 3.738-3.672l3.995-.002V8.033c-.691-.091-3.062-.297-5.82-.297-5.76 0-9.702 3.515-9.702 9.97v5.564h-6.513v7.543h6.513v19.355h7.79z" fill="#FEFEFE"/></g></svg>
